assets/icons/icon_article_ldpi.svg

<svg width="30" height="30" viewBox="0 0 30 30" fill="none"
    xmlns="http://www.w3.org/2000/svg">
    <path d="M14.0625 10H7.1875C5.98125 10 5 10.9812 5 12.1875V19.0625C5 20.2687 5.98125 21.25 7.1875 21.25H14.0625C15.2688 21.25 16.25 20.2687 16.25 19.0625V12.1875C16.25 10.9812 15.2688 10 14.0625 10ZM7.1875 11.875H14.0625C14.235 11.875 14.375 12.015 14.375 12.1875V15.4187C13.465 14.8075 12.1125 14.9412 11.4175 15.8262L10.7687 16.6375C10.5675 16.885 10.3687 16.7287 10.3 16.6612C9.445 15.8062 8.05375 15.8062 7.2 16.6612L6.875 16.9862V12.1875C6.875 12.015 7.015 11.875 7.1875 11.875Z" fill="#818CF8"/>
    <path d="M26.25 1.25H3.75C1.6825 1.25 0 2.9325 0 5V25C0 27.0675 1.6825 28.75 3.75 28.75H26.25C28.3175 28.75 30 27.0675 30 25V5C30 2.9325 28.3175 1.25 26.25 1.25ZM26.25 26.25H3.75C3.06125 26.25 2.5 25.69 2.5 25V7.5H27.5V25C27.5 25.69 26.9387 26.25 26.25 26.25Z" fill="#3730A3"/>
    <path d="M23.75 15H18.75C18.06 15 17.5 14.44 17.5 13.75C17.5 13.06 18.06 12.5 18.75 12.5H23.75C24.44 12.5 25 13.06 25 13.75C25 14.44 24.44 15 23.75 15Z" fill="#818CF8"/>
    <path d="M23.75 20H18.75C18.06 20 17.5 19.44 17.5 18.75C17.5 18.06 18.06 17.5 18.75 17.5H23.75C24.44 17.5 25 18.06 25 18.75C25 19.44 24.44 20 23.75 20Z" fill="#818CF8"/>
    <path d="M23.75 25H6.25C5.56 25 5 24.44 5 23.75C5 23.06 5.56 22.5 6.25 22.5H23.75C24.44 22.5 25 23.06 25 23.75C25 24.44 24.44 25 23.75 25Z" fill="#818CF8"/>
</svg>

<svg fill="none" xmlns="http://www.w3.org/2000/svg" viewBox="0 0 30 30"><path d="M14.06 10H7.2A2.2 2.2 0 0 0 5 12.19v6.87c0 1.2.98 2.19 2.19 2.19h6.87a2.2 2.2 0 0 0 2.19-2.19V12.2a2.2 2.2 0 0 0-2.19-2.19M7.2 11.88h6.87a.3.3 0 0 1 .31.3v3.24c-.9-.61-2.26-.48-2.95.4l-.65.82c-.2.25-.4.09-.47.02a2.2 2.2 0 0 0-3.1 0l-.33.33v-4.8c0-.17.14-.31.32-.31" fill="#818CF8"/><path d="M26.25 1.25H3.75A3.75 3.75 0 0 0 0 5v20a3.75 3.75 0 0 0 3.75 3.75h22.5A3.75 3.75 0 0 0 30 25V5a3.75 3.75 0 0 0-3.75-3.75m0 25H3.75c-.69 0-1.25-.56-1.25-1.25V7.5h25V25c0 .69-.56 1.25-1.25 1.25" fill="#3730A3"/><path d="M23.75 15h-5a1.25 1.25 0 0 1 0-2.5h5a1.25 1.25 0 0 1 0 2.5m0 5h-5a1.25 1.25 0 0 1 0-2.5h5a1.25 1.25 0 0 1 0 2.5m0 5H6.25a1.25 1.25 0 0 1 0-2.5h17.5a1.25 1.25 0 0 1 0 2.5" fill="#818CF8"/></svg>
